; generated by PrusaSlicer 2.4.1+win64 on 2022-04-17 at 23:43:09 UTC

; 

; external perimeters extrusion width = 0.60mm
; perimeters extrusion width = 0.50mm
; infill extrusion width = 0.50mm
; solid infill extrusion width = 0.50mm
; top infill extrusion width = 0.45mm
; first layer extrusion width = 0.42mm

; external perimeters extrusion width = 0.60mm
; perimeters extrusion width = 0.50mm
; infill extrusion width = 0.50mm
; solid infill extrusion width = 0.50mm
; top infill extrusion width = 0.45mm
; first layer extrusion width = 0.42mm

M73 P0 R221
M73 Q0 S224
M201 X1000 Y1000 Z200 E5000 ; sets maximum accelerations, mm/sec^2
M203 X200 Y200 Z12 E120 ; sets maximum feedrates, mm / sec
M204 P1250 R1250 T1250 ; sets acceleration (P, T) and retract acceleration (R), mm/sec^2
M205 X8.00 Y8.00 Z0.40 E4.50 ; sets the jerk limits, mm/sec
M205 S0 T0 ; sets the minimum extruding and travel feed rate, mm/sec
M107
;TYPE:Custom
M862.3 P "MK3SMMU2S" ; printer model check
M862.1 P0.4 ; nozzle diameter check
M115 U3.10.1 ; tell printer latest fw version
G90 ; use absolute coordinates
M83 ; extruder relative mode
M104 S230 ; set extruder temp
M140 S85 ; set bed temp
Tx
M190 S85 ; wait for bed temp
M109 S230 ; wait for extruder temp
G28 W ; home all without mesh bed level
G80 ; mesh bed leveling

;go outside print area
G1 Y-3 F1000
G1 Z0.4 F1000
; select extruder
Tc
; purge line
G1 X55 F2000
G1 Z0.3 F1000
G92 E0
G1 X240 E25 F2200
G1 Y-2 F1000
G1 X55 E25 F1400
G1 Z0.2 F1000
G1 X5 E4 F1000

M221 S95
G92 E0

; Don't change E values below. Excessive value can damage the printer.

M907 E538 ; set extruder motor current
G21 ; set units to millimeters
G90 ; use absolute coordinates
M83 ; use relative distances for extrusion
M900 K0.08 ; Filament gcode LA 1.5
M900 K45 ; Filament gcode LA 1.0
M107
;LAYER_CHANGE
;Z:0.2
;HEIGHT:0.2
;BEFORE_LAYER_CHANGE
G92 E0.0
;0.2


G1 E-1 F2100
G1 Z.2 F720
;AFTER_LAYER_CHANGE
;0.2
G1 Z.4
G1 X77.924 Y13.013 F10800
G1 Z.2 F720
G1 E1 F2100
M204 S800
;TYPE:Skirt/Brim
;WIDTH:0.42
M73 Q0 S223
G1 F1200
G1 X78.25 Y12.015 E.03289
G1 X78.822 Y11.136 E.03289
G1 X79.603 Y10.435 E.03289
G1 X80.538 Y9.96 E.03289
G1 X81.138 Y9.799 E.01946
G1 X81.875 Y9.723 E.02324
G1 X168.435 Y9.743 E2.71404
G1 X168.862 Y9.799 E.01351
M73 P0 R220
G1 X169.86 Y10.125 E.03289
G1 X170.397 Y10.435 E.01946
G1 X171.178 Y11.136 E.03289
G1 X171.44 Y11.478 E.01351
G1 X171.915 Y12.413 E.03289
G1 X172.076 Y13.013 E.01946
G1 X172.152 Y13.75 E.02324
G1 X172.152 Y196.25 E5.72216
G1 X172.076 Y196.987 E.02324
G1 X171.75 Y197.985 E.03289
G1 X171.178 Y198.864 E.03289
G1 X170.397 Y199.565 E.03289
G1 X169.462 Y200.04 E.03289
G1 X168.862 Y200.201 E.01946
G1 X168.125 Y200.277 E.02324
G1 X81.875 Y200.277 E2.70431
G1 X81.138 Y200.201 E.02324
G1 X80.14 Y199.875 E.03289
G1 X79.261 Y199.303 E.03289
G1 X78.56 Y198.522 E.03289
G1 X78.085 Y197.587 E.03289
G1 X77.924 Y196.987 E.01946
G1 X77.848 Y196.25 E.02324
G1 X77.848 Y13.75 E5.72216
G1 X77.918 Y13.072 E.02136
M204 S1000
; printing object 3x3to4x4DeckPostAdapter.stl id:1 copy 0
;WIPE_START
G1 F8640
G1 X78.25 Y12.015 E-.25579
G1 X78.822 Y11.136 E-.24225
G1 X79.603 Y10.435 E-.24225
G1 X80.413 Y10.024 E-.20971
;WIPE_END
G1 E-.05 F2100
G1 Z.4 F720
G1 X87.013 Y18.888 F10800
G1 Z.2 F720
G1 E1 F2100
M204 S800
;TYPE:Perimeter
G1 F1200
G1 X162.987 Y18.888 E2.38212
G1 X162.987 Y94.862 E2.38212
G1 X87.013 Y94.862 E2.38212
G1 X87.013 Y18.948 E2.38024
M204 S1000
G1 X87.39 Y19.265 F10800
M204 S800
;TYPE:External perimeter
G1 F1200
G1 X162.61 Y19.265 E2.35847
G1 X162.61 Y94.485 E2.35847
G1 X87.39 Y94.485 E2.35847
G1 X87.39 Y19.325 E2.35659
M204 S1000
G1 X87.286 Y18.879 F10800
;WIPE_START
G1 F8640
G1 X91.504 Y19.322 E-.95
;WIPE_END
G1 E-.05 F2100
G1 Z.4 F720
G1 X81.659 Y13.534 F10800
G1 Z.2 F720
G1 E1 F2100
M204 S800
;TYPE:Perimeter
G1 F1200
G1 X81.796 Y13.454 E.00497
G1 X81.927 Y13.437 E.00414
G1 X168.112 Y13.442 E2.70229
G1 X168.204 Y13.454 E.00291
M73 P0 R219
M73 Q0 S222
G1 X168.341 Y13.534 E.00497
G1 X168.421 Y13.671 E.00497
G1 X168.438 Y13.802 E.00414
G1 X168.438 Y99.948 E2.70107
G1 X168.421 Y100.079 E.00414
G1 X168.341 Y100.216 E.00497
G1 X168.204 Y100.296 E.00497
G1 X168.073 Y100.313 E.00414
G1 X81.927 Y100.313 E2.70107
G1 X81.796 Y100.296 E.00414
G1 X81.659 Y100.216 E.00497
G1 X81.579 Y100.079 E.00497
G1 X81.562 Y99.948 E.00414
G1 X81.562 Y13.802 E2.70107
G1 X81.579 Y13.671 E.00414
G1 X81.622 Y13.581 E.00311
M204 S1000
G1 X81.532 Y13.156 F10800
M204 S800
;TYPE:External perimeter
G1 F1200
G1 X81.697 Y13.087 E.00562
G1 X81.902 Y13.06 E.00647
G1 X168.137 Y13.065 E2.70384
G1 X168.303 Y13.087 E.00524
G1 X168.468 Y13.156 E.00562
G1 X168.61 Y13.265 E.00562
G1 X168.719 Y13.407 E.00562
G1 X168.788 Y13.572 E.00562
G1 X168.815 Y13.777 E.00647
G1 X168.815 Y99.973 E2.70262
G1 X168.788 Y100.178 E.00647
G1 X168.719 Y100.343 E.00562
G1 X168.61 Y100.485 E.00562
G1 X168.468 Y100.594 E.00562
G1 X168.303 Y100.663 E.00562
G1 X168.098 Y100.69 E.00647
G1 X81.902 Y100.69 E2.70262
G1 X81.697 Y100.663 E.00647
G1 X81.532 Y100.594 E.00562
G1 X81.39 Y100.485 E.00562
G1 X81.281 Y100.343 E.00562
G1 X81.212 Y100.178 E.00562
G1 X81.185 Y99.973 E.00647
G1 X81.185 Y13.777 E2.70262
G1 X81.212 Y13.572 E.00647
G1 X81.281 Y13.407 E.00562
G1 X81.39 Y13.265 E.00562
G1 X81.484 Y13.192 E.00374
M204 S1000
G1 X81.687 Y13.245 F10800
;WIPE_START
G1 F8640
G1 X81.697 Y13.087 E-.05488
G1 X81.902 Y13.06 E-.04764
G1 X85.572 Y13.06 E-.84748
;WIPE_END
G1 E-.05 F2100
G1 Z.4 F720
G1 X167.424 Y13.555 F10800
G1 Z.2 F720
G1 E1 F2100
M204 S800
;TYPE:Solid infill
;WIDTH:0.420676
G1 F1200
G1 X168.155 Y14.287 E.03249
G1 X168.155 Y14.821 E.01678
G1 X167.059 Y13.725 E.04868
G1 X166.525 Y13.725 E.01678
G1 X168.155 Y15.355 E.07241
G1 X168.155 Y15.889 E.01678
G1 X165.991 Y13.725 E.09615
G1 X165.456 Y13.725 E.01678
G1 X168.155 Y16.424 E.11988
G1 X168.155 Y16.958 E.01678
G1 X164.922 Y13.725 E.14361
G1 X164.388 Y13.725 E.01678
G1 X168.155 Y17.492 E.16734
G1 X168.155 Y18.026 E.01678
G1 X163.854 Y13.725 E.19108
G1 X163.319 Y13.725 E.01678
G1 X168.155 Y18.56 E.21481
G1 X168.155 Y19.095 E.01678
G1 X162.785 Y13.725 E.23854
G1 X162.251 Y13.725 E.01678
G1 X168.155 Y19.629 E.26227
G1 X168.155 Y20.163 E.01678
G1 X161.717 Y13.725 E.28601
G1 X161.182 Y13.725 E.01678
G1 X168.155 Y20.697 E.30974
G1 X168.155 Y21.232 E.01678
G1 X160.648 Y13.725 E.33347
G1 X160.114 Y13.725 E.01678
G1 X168.155 Y21.766 E.3572
G1 X168.155 Y22.3 E.01678
G1 X159.58 Y13.724 E.38094
G1 X159.045 Y13.724 E.01678
G1 X168.155 Y22.834 E.40467
G1 X168.155 Y23.368 E.01678
G1 X158.511 Y13.724 E.4284
G1 X157.977 Y13.724 E.01678
G1 X162.858 Y18.605 E.21681
G1 X163.27 Y18.605 E.01295
G1 X163.27 Y19.017 E.01295
G1 X168.155 Y23.903 E.21701
G1 X168.155 Y24.437 E.01678
G1 X163.27 Y19.552 E.21701
G1 X163.27 Y20.086 E.01678
G1 X168.155 Y24.971 E.21701
G1 X168.155 Y25.505 E.01678
G1 X163.27 Y20.62 E.21701
G1 X163.27 Y21.154 E.01678
G1 X168.155 Y26.04 E.21701
G1 X168.155 Y26.574 E.01678
G1 X163.27 Y21.689 E.21701
G1 X163.27 Y22.223 E.01678
G1 X168.155 Y27.108 E.21701
G1 X168.155 Y27.642 E.01678
G1 X163.27 Y22.757 E.21701
G1 X163.27 Y23.291 E.01678
G1 X168.155 Y28.177 E.21701
G1 X168.155 Y28.711 E.01678
G1 X163.27 Y23.826 E.21701
G1 X163.27 Y24.36 E.01678
G1 X168.155 Y29.245 E.21701
G1 X168.155 Y29.779 E.01678
G1 X163.27 Y24.894 E.21701
G1 X163.27 Y25.428 E.01678
G1 X168.155 Y30.313 E.21701
G1 X168.155 Y30.848 E.01678
G1 X163.27 Y25.962 E.21701
G1 X163.27 Y26.497 E.01678
G1 X168.155 Y31.382 E.21701
G1 X168.155 Y31.916 E.01678
G1 X163.27 Y27.031 E.21701
G1 X163.27 Y27.565 E.01678
G1 X168.155 Y32.45 E.21701
G1 X168.155 Y32.985 E.01678
G1 X163.27 Y28.099 E.21701
G1 X163.27 Y28.634 E.01678
G1 X168.155 Y33.519 E.21701
G1 X168.155 Y34.053 E.01678
G1 X163.27 Y29.168 E.21701
G1 X163.27 Y29.702 E.01678
G1 X168.155 Y34.587 E.21701
G1 X168.155 Y35.121 E.01678
G1 X163.27 Y30.236 E.21701
G1 X163.27 Y30.77 E.01678
G1 X168.155 Y35.656 E.21701
G1 X168.155 Y36.19 E.01678
G1 X163.27 Y31.305 E.21701
G1 X163.27 Y31.839 E.01678
G1 X168.155 Y36.724 E.21701
G1 X168.155 Y37.258 E.01678
G1 X163.27 Y32.373 E.21701
G1 X163.27 Y32.907 E.01678
G1 X168.155 Y37.793 E.21701
G1 X168.155 Y38.327 E.01678
G1 X163.27 Y33.442 E.21701
G1 X163.27 Y33.976 E.01678
G1 X168.155 Y38.861 E.21701
G1 X168.155 Y39.395 E.01678
M73 P1 R219
G1 X163.27 Y34.51 E.21701
G1 X163.27 Y35.044 E.01678
G1 X168.155 Y39.93 E.21701
G1 X168.155 Y40.464 E.01678
G1 X163.27 Y35.579 E.21701
G1 X163.27 Y36.113 E.01678
M73 Q1 S222
G1 X168.155 Y40.998 E.21701
G1 X168.155 Y41.532 E.01678
G1 X163.27 Y36.647 E.21701
G1 X163.27 Y37.181 E.01678
G1 X168.155 Y42.066 E.21701
G1 X168.155 Y42.601 E.01678
G1 X163.27 Y37.715 E.21701
G1 X163.27 Y38.25 E.01678
G1 X168.155 Y43.135 E.21701
G1 X168.155 Y43.669 E.01678
G1 X163.27 Y38.784 E.21701
G1 X163.27 Y39.318 E.01678
G1 X168.155 Y44.203 E.21701
G1 X168.155 Y44.738 E.01678
G1 X163.27 Y39.852 E.21701
G1 X163.27 Y40.387 E.01678
G1 X168.155 Y45.272 E.21701
G1 X168.155 Y45.806 E.01678
G1 X163.27 Y40.921 E.21701
G1 X163.27 Y41.455 E.01678
G1 X168.155 Y46.34 E.21701
G1 X168.155 Y46.874 E.01678
G1 X163.27 Y41.989 E.21701
G1 X163.27 Y42.523 E.01678
M73 Q1 S221
G1 X168.155 Y47.409 E.21701
G1 X168.155 Y47.943 E.01678
G1 X163.27 Y43.058 E.21701
G1 X163.27 Y43.592 E.01678
G1 X168.155 Y48.477 E.21701
G1 X168.155 Y49.011 E.01678
G1 X163.27 Y44.126 E.21701
G1 X163.27 Y44.66 E.01678
M73 P1 R218
G1 X168.155 Y49.546 E.21701
G1 X168.155 Y50.08 E.01678
G1 X163.27 Y45.195 E.21701
G1 X163.27 Y45.729 E.01678
G1 X168.155 Y50.614 E.21701
G1 X168.155 Y51.148 E.01678
G1 X163.27 Y46.263 E.21701
G1 X163.27 Y46.797 E.01678
G1 X168.155 Y51.683 E.21701
G1 X168.155 Y52.217 E.01678
G1 X163.27 Y47.332 E.21701
G1 X163.27 Y47.866 E.01678
G1 X168.155 Y52.751 E.21701
G1 X168.155 Y53.285 E.01678
G1 X163.27 Y48.4 E.21701
G1 X163.27 Y48.934 E.01678
G1 X168.155 Y53.819 E.21701
G1 X168.155 Y54.354 E.01678
G1 X163.27 Y49.468 E.21701
G1 X163.27 Y50.003 E.01678
G1 X168.155 Y54.888 E.21701
G1 X168.155 Y55.422 E.01678
G1 X163.27 Y50.537 E.21701
G1 X163.27 Y51.071 E.01678
G1 X168.155 Y55.956 E.21701
G1 X168.155 Y56.491 E.01678
G1 X163.27 Y51.605 E.21701
G1 X163.27 Y52.14 E.01678
G1 X168.155 Y57.025 E.21701
G1 X168.155 Y57.559 E.01678
G1 X163.27 Y52.674 E.21701
G1 X163.27 Y53.208 E.01678
G1 X168.155 Y58.093 E.21701
G1 X168.155 Y58.628 E.01678
G1 X163.27 Y53.742 E.21701
G1 X163.27 Y54.276 E.01678
G1 X168.155 Y59.162 E.21701
G1 X168.155 Y59.696 E.01678
G1 X163.27 Y54.811 E.21701
G1 X163.27 Y55.345 E.01678
G1 X168.155 Y60.23 E.21701
G1 X168.155 Y60.764 E.01678
G1 X163.27 Y55.879 E.21701
G1 X163.27 Y56.413 E.01678
G1 X168.155 Y61.299 E.21701
G1 X168.155 Y61.833 E.01678
G1 X163.27 Y56.948 E.21701
G1 X163.27 Y57.482 E.01678
G1 X168.155 Y62.367 E.21701
G1 X168.155 Y62.901 E.01678
G1 X163.27 Y58.016 E.21701
G1 X163.27 Y58.55 E.01678
G1 X168.155 Y63.436 E.21701
G1 X168.155 Y63.97 E.01678
G1 X163.27 Y59.085 E.21701
G1 X163.27 Y59.619 E.01678
G1 X168.155 Y64.504 E.21701
G1 X168.155 Y65.038 E.01678
G1 X163.27 Y60.153 E.21701
G1 X163.27 Y60.687 E.01678
G1 X168.155 Y65.572 E.21701
G1 X168.155 Y66.107 E.01678
G1 X163.27 Y61.221 E.21701
G1 X163.27 Y61.756 E.01678
G1 X168.155 Y66.641 E.21701
G1 X168.155 Y67.175 E.01678
G1 X163.27 Y62.29 E.21701
G1 X163.27 Y62.824 E.01678
G1 X168.155 Y67.709 E.21701
G1 X168.155 Y68.244 E.01678
G1 X163.27 Y63.358 E.21701
G1 X163.27 Y63.893 E.01678
G1 X168.155 Y68.778 E.21701
G1 X168.155 Y69.312 E.01678
G1 X163.27 Y64.427 E.21701
G1 X163.27 Y64.961 E.01678
G1 X168.155 Y69.846 E.21701
G1 X168.155 Y70.381 E.01678
G1 X163.27 Y65.495 E.21701
G1 X163.27 Y66.029 E.01678
G1 X168.155 Y70.915 E.21701
G1 X168.155 Y71.449 E.01678
G1 X163.27 Y66.564 E.21701
G1 X163.27 Y67.098 E.01678
G1 X168.155 Y71.983 E.21701
G1 X168.155 Y72.517 E.01678
G1 X163.27 Y67.632 E.21701
G1 X163.27 Y68.166 E.01678
G1 X168.155 Y73.052 E.21701
G1 X168.155 Y73.586 E.01678
G1 X163.27 Y68.701 E.21701
G1 X163.27 Y69.235 E.01678
G1 X168.155 Y74.12 E.21701
G1 X168.155 Y74.654 E.01678
G1 X163.27 Y69.769 E.21701
G1 X163.27 Y70.303 E.01678
G1 X168.155 Y75.189 E.21701
G1 X168.155 Y75.723 E.01678
G1 X163.27 Y70.838 E.21701
G1 X163.27 Y71.372 E.01678
G1 X168.155 Y76.257 E.21701
G1 X168.155 Y76.791 E.01678
G1 X163.27 Y71.906 E.21701
G1 X163.27 Y72.44 E.01678
G1 X168.155 Y77.325 E.21701
G1 X168.155 Y77.86 E.01678
G1 X163.27 Y72.974 E.21701
G1 X163.27 Y73.509 E.01678
G1 X168.155 Y78.394 E.21701
G1 X168.155 Y78.928 E.01678
G1 X163.27 Y74.043 E.21701
G1 X163.27 Y74.577 E.01678
G1 X168.155 Y79.462 E.21701
G1 X168.155 Y79.997 E.01678
G1 X163.27 Y75.111 E.21701
G1 X163.27 Y75.646 E.01678
G1 X168.155 Y80.531 E.21701
G1 X168.155 Y81.065 E.01678
G1 X163.27 Y76.18 E.21701
G1 X163.27 Y76.714 E.01678
G1 X168.155 Y81.599 E.21701
G1 X168.155 Y82.134 E.01678
G1 X163.27 Y77.248 E.21701
G1 X163.27 Y77.783 E.01678
G1 X168.155 Y82.668 E.21701
G1 X168.155 Y83.202 E.01678
G1 X163.27 Y78.317 E.21701
G1 X163.27 Y78.851 E.01678
G1 X168.155 Y83.736 E.21701
G1 X168.155 Y84.27 E.01678
G1 X163.27 Y79.385 E.21701
G1 X163.27 Y79.919 E.01678
G1 X168.155 Y84.805 E.21701
G1 X168.155 Y85.339 E.01678
G1 X163.27 Y80.454 E.21701
G1 X163.27 Y80.988 E.01678
G1 X168.155 Y85.873 E.21701
G1 X168.155 Y86.407 E.01678
G1 X163.27 Y81.522 E.21701
G1 X163.27 Y82.056 E.01678
G1 X168.155 Y86.942 E.21701
G1 X168.155 Y87.476 E.01678
G1 X163.27 Y82.591 E.21701
G1 X163.27 Y83.125 E.01678
G1 X168.155 Y88.01 E.21701
G1 X168.155 Y88.544 E.01678
G1 X163.27 Y83.659 E.21701
G1 X163.27 Y84.193 E.01678
G1 X168.155 Y89.078 E.21701
G1 X168.155 Y89.613 E.01678
G1 X163.27 Y84.727 E.21701
G1 X163.27 Y85.262 E.01678
G1 X168.155 Y90.147 E.21701
G1 X168.155 Y90.681 E.01678
G1 X163.27 Y85.796 E.21701
G1 X163.27 Y86.33 E.01678
G1 X168.155 Y91.215 E.21701
G1 X168.155 Y91.75 E.01678
G1 X163.27 Y86.864 E.21701
G1 X163.27 Y87.399 E.01678
G1 X168.155 Y92.284 E.21701
G1 X168.155 Y92.818 E.01678
G1 X163.27 Y87.933 E.21701
G1 X163.27 Y88.467 E.01678
G1 X168.155 Y93.352 E.21701
G1 X168.155 Y93.887 E.01678
G1 X163.27 Y89.001 E.21701
G1 X163.27 Y89.536 E.01678
G1 X168.155 Y94.421 E.21701
G1 X168.155 Y94.955 E.01678
G1 X163.27 Y90.07 E.21701
G1 X163.27 Y90.604 E.01678
G1 X168.155 Y95.489 E.21701
G1 X168.155 Y96.023 E.01678
G1 X163.27 Y91.138 E.21701
G1 X163.27 Y91.672 E.01678
G1 X168.155 Y96.558 E.21701
G1 X168.155 Y97.092 E.01678
G1 X163.27 Y92.207 E.21701
G1 X163.27 Y92.741 E.01678
G1 X168.155 Y97.626 E.21701
G1 X168.155 Y98.16 E.01678
G1 X163.27 Y93.275 E.21701
G1 X163.27 Y93.809 E.01678
G1 X168.155 Y98.695 E.21701
G1 X168.155 Y99.229 E.01678
G1 X163.27 Y94.344 E.21701
G1 X163.27 Y94.878 E.01678
G1 X168.155 Y99.763 E.21701
G1 X168.155 Y99.93 E.00524
G1 X168.134 Y100.009 E.00258
G1 X168.055 Y100.03 E.00258
G1 X167.888 Y100.03 E.00524
G1 X163.003 Y95.145 E.21701
G1 X162.469 Y95.145 E.01678
G1 X167.354 Y100.03 E.21701
G1 X166.82 Y100.03 E.01678
G1 X161.934 Y95.145 E.21701
G1 X161.4 Y95.145 E.01678
G1 X166.285 Y100.03 E.21701
G1 X165.751 Y100.03 E.01678
G1 X160.866 Y95.145 E.21701
G1 X160.332 Y95.145 E.01678
G1 X165.217 Y100.03 E.21701
G1 X164.683 Y100.03 E.01678
G1 X159.797 Y95.145 E.21701
G1 X159.263 Y95.145 E.01678
G1 X164.148 Y100.03 E.21701
G1 X163.614 Y100.03 E.01678
G1 X158.729 Y95.145 E.21701
G1 X158.195 Y95.145 E.01678
G1 X163.08 Y100.03 E.21701
G1 X162.546 Y100.03 E.01678
G1 X157.66 Y95.145 E.21701
G1 X157.126 Y95.145 E.01678
G1 X162.011 Y100.03 E.21701
G1 X161.477 Y100.03 E.01678
G1 X156.592 Y95.145 E.21701
G1 X156.058 Y95.145 E.01678
G1 X160.943 Y100.03 E.21701
G1 X160.409 Y100.03 E.01678
G1 X155.524 Y95.145 E.21701
G1 X154.989 Y95.145 E.01678
G1 X159.875 Y100.03 E.21701
G1 X159.34 Y100.03 E.01678
G1 X154.455 Y95.145 E.21701
G1 X153.921 Y95.145 E.01678
G1 X158.806 Y100.03 E.21701
G1 X158.272 Y100.03 E.01678
G1 X153.387 Y95.145 E.21701
G1 X152.852 Y95.145 E.01678
G1 X157.738 Y100.03 E.21701
G1 X157.203 Y100.03 E.01678
G1 X152.318 Y95.145 E.21701
G1 X151.784 Y95.145 E.01678
G1 X156.669 Y100.03 E.21701
G1 X156.135 Y100.03 E.01678
G1 X151.25 Y95.145 E.21701
G1 X150.716 Y95.145 E.01678
G1 X155.601 Y100.03 E.21701
G1 X155.067 Y100.03 E.01678
G1 X150.181 Y95.145 E.21701
G1 X149.647 Y95.145 E.01678
